X: 531
U:~=!turn!
M:6/8
L:1/8
K:C
f | e2c {/d}cBc | G2 c E2 c | e2 c ege | c3 c2 e | f2 d {/e}dcd | A2 d d2 c |
f2 d e2 c | BdB GAB | c3 c2 || f | e2 g- gag | e2 g- gag | e2 c ege | c3 c2 e |
f2 a- ac'a | f2 a ac'a | f2 d faf | d3 d2 f | e2 g- gag | e2 g- gag |
e2 c ege | c3 c2 g | afa geg | fdf ece | BdB GAc | c3 c2 |]


